!!!Genre:	Broyges-tants
!!!Mode:	Freygish
!!!Edition:	2015
!!!Listening/dance:	dance
!!!Free rhythm?:	No
!!!Secondary Modes:	All freygish
!!!One_Mode:	yes
**kern
*I"P1
*clefG2
*k[b-e-a-]
*G:frey
*M2/4
*>A
=1
8ccL
16a-L
16gJJ
8a-L
8ccJ
=2
8bnL
16a-L
16gJJ
4f
=3
8ee-L
8dd
8cc
8bnJ
=4
(8qdd/
4cc)
4cc
=5
8ccL
16a-L
16gJJ
8a-L
8ccJ
=6
8bnL
16a-L
16gJJ
4f
=7
16gLL
16a-
16bn
16a-JJ
16gLL
16f
16g
16a-JJ
=8
2g
=9||
*>B
8ff
4ff
8ff
=10
16ffLL
16ee-
16dd
16ccJJ
4gg
=11
16ffLL
16ee-
16dd
16ccJJ
16bnLL
16cc
16dd
16ee-JJ
=12
4cc
4cc
=13
16ddLL
16ee-
16ff
16ee-JJ
16ddLL
16cc
16dd
16ee-JJ
=14
(8qdd/
8ccL)
8ccJ
4bn
=15
16gLL
16a-
16bn
16a-JJ
16gLL
16f
16g
16a-JJ
=16
4g
4gg
==
*-
